icons/chart-donut.svg

<svg width="24" height="24" viewBox="0 0 24 24" fill="none" xmlns="http://www.w3.org/2000/svg">
<path fill-rule="evenodd" clip-rule="evenodd" d="M11.0867 3.11325C11.2089 3.65184 10.8714 4.18753 10.3328 4.30975C6.7703 5.11812 4.11151 8.30552 4.11151 12.1115C4.11151 15.9175 6.7703 19.1049 10.3328 19.9133C10.8714 20.0355 11.2089 20.5712 11.0867 21.1098C10.9645 21.6484 10.4288 21.9859 9.89022 21.8637C5.43676 20.8532 2.11151 16.8719 2.11151 12.1115C2.11151 7.35118 5.43677 3.36987 9.89023 2.35933C10.4288 2.23712 10.9645 2.57466 11.0867 3.11325ZM13.1363 3.11325C13.2585 2.57466 13.7942 2.23712 14.3328 2.35933C18.073 3.20804 21.015 6.14999 21.8637 9.89024C21.9859 10.4288 21.6484 10.9645 21.1098 11.0867C20.5712 11.2089 20.0355 10.8714 19.9133 10.3328C19.235 7.34355 16.8795 4.98805 13.8902 4.30975C13.3516 4.18753 13.0141 3.65184 13.1363 3.11325ZM21.1098 13.1363C21.6484 13.2585 21.9859 13.7942 21.8637 14.3328C21.015 18.0731 18.073 21.015 14.3328 21.8637C13.7942 21.9859 13.2585 21.6484 13.1363 21.1098C13.0141 20.5712 13.3516 20.0355 13.8902 19.9133C16.8795 19.235 19.235 16.8795 19.9133 13.8902C20.0355 13.3516 20.5712 13.0141 21.1098 13.1363Z" fill="black"/>
</svg>

<svg
  width="24"
  height="24"
  viewBox="0 0 24 24"
  xmlns="http://www.w3.org/2000/svg"
>
  <path
    fill-rule="evenodd"
    clip-rule="evenodd"
    d="M11.087 3.113a1 1 0 0 1-.754 1.197 8.003 8.003 0 0 0 0 15.603 1 1 0 0 1-.443 1.95c-4.453-1.01-7.778-4.991-7.778-9.752 0-4.76 3.325-8.741 7.778-9.752a1 1 0 0 1 1.197.754zm2.05 0a1 1 0 0 1 1.196-.754c3.74.849 6.682 3.791 7.53 7.531a1 1 0 1 1-1.95.443A8.013 8.013 0 0 0 13.89 4.31a1 1 0 0 1-.754-1.197zm7.973 10.023a1 1 0 0 1 .754 1.197 10.013 10.013 0 0 1-7.531 7.53 1 1 0 1 1-.443-1.95 8.013 8.013 0 0 0 6.023-6.023 1 1 0 0 1 1.197-.754z"
  />
</svg>
